X:100
T:Liz Carroll's
T:Merle's Tune
N:as played by Paddy O'Brien on Stranger at the Gate. He transposed it down a step. Transcribed by Alan Ng
D:Green Linnet GLCD 1091
R:reel
C:Liz Carroll
Z: id:ng-reels-20 transcribed by Alan Ng agng@students.wisc.edu April 12, 1997
M:C|
K:ADor
AEAB cAED|CB,F,A, G,A,B,D|EAAB cdef|gdec BcdB|AEAB cAED|CDEF GDB,D|\
CG,CE GDB,G|DCB,D CA,A,A,::ABcA aAeA|cAea eAAG|ABcd gGdG|BGdg dG(3GFG|\
AEAB cAEA|cdef gdBd|cGec BGdB|DCB,D CA,A,A,:|*
